src/assets/svg/icons/fa/nuevos/classic/light/shop-lock classic light.svg

<svg xmlns="http://www.w3.org/2000/svg" viewBox="0 0 640 512"><!--! Font Awesome Pro 6.4.0 by @fontawesome - https://fontawesome.com License - https://fontawesome.com/license (Commercial License) Copyright 2023 Fonticons, Inc. --><path d="M0 185.8c0-6.4 1.6-12.7 4.7-18.3L82.4 25C90.8 9.6 106.9 0 124.5 0h391c17.6 0 33.7 9.6 42.1 25l77.7 142.4c3.1 5.6 4.7 11.9 4.7 18.3c0 12.4-5.9 23.3-14.9 30.3c-5.4-9.3-12.1-17.8-19.8-25.2c1.6-1.1 2.7-3 2.7-5.2c0-1-.3-2.1-.8-3L529.6 40.3c-2.8-5.1-8.2-8.3-14-8.3h-391c-5.9 0-11.2 3.2-14 8.3L32.8 182.8c-.5 .9-.8 1.9-.8 3c0 3.4 2.8 6.2 6.2 6.2H80 449.6c-9.4 9.2-17.1 20-22.8 32H96V352H352V272c0-8.8 7.2-16 16-16s16 7.2 16 16v79.6l0 .4V464.3c-.2 26.4-21.6 47.7-48 47.7H112c-26.5 0-48-21.5-48-48V224H38.2C17.1 224 0 206.9 0 185.8zM96 464c0 8.8 7.2 16 16 16H336c8.8 0 16-7.2 16-16V384H96v80zM528 224c-26.5 0-48 21.5-48 48v48h96V272c0-26.5-21.5-48-48-48zm-80 48c0-44.2 35.8-80 80-80s80 35.8 80 80v48c17.7 0 32 14.3 32 32V480c0 17.7-14.3 32-32 32H448c-17.7 0-32-14.3-32-32V352c0-17.7 14.3-32 32-32V272zm0 80V480H608V352H448z"/></svg>

<svg xmlns="http://www.w3.org/2000/svg" viewBox="0 0 640 512"><path d="M.001 185.8C.001 179.4 1.607 173.1 4.671 167.4L82.36 25.02C90.77 9.595 106.9 0 124.5 0H515.5C533.1 0 549.2 9.595 557.6 25.02L635.3 167.4C638.4 173.1 640 179.4 640 185.8C640 198.1 634.1 209.1 625.1 216.1C619.7 206.8 613 198.3 605.3 190.9C606.9 189.8 608 187.9 608 185.8C608 184.7 607.7 183.7 607.2 182.8L529.6 40.34C526.7 35.2 521.4 32 515.5 32H124.5C118.6 32 113.3 35.2 110.4 40.34L32.76 182.8C32.26 183.7 32 184.7 32 185.8C32 189.2 34.8 191.1 38.25 191.1H449.6C440.2 201.2 432.5 212 426.8 223.1H96V352H352V271.1C352 263.2 359.2 255.1 368 255.1C376.8 255.1 384 263.2 384 271.1V351.6L384 352V464.3C383.8 490.7 362.4 512 336 512H112C85.49 512 64 490.5 64 464V223.1H38.25C17.12 223.1 0 206.9 0 185.8L.001 185.8zM112 480H336C344.8 480 352 472.8 352 464V384H96V464C96 472.8 103.2 480 112 480V480zM528 192C572.2 192 608 227.8 608 272V320C625.7 320 640 334.3 640 352V480C640 497.7 625.7 512 608 512H448C430.3 512 416 497.7 416 480V352C416 334.3 430.3 320 448 320V272C448 227.8 483.8 192 528 192zM528 224C501.5 224 480 245.5 480 272V320H576V272C576 245.5 554.5 224 528 224zM448 352V480H608V352H448z"/></svg>
